food-off.svg

<svg fill="currentColor" viewBox="0 0 24 24"><path d="M11.35 8.5 11 5h5V1h2v4h5l-1.38 13.79zM1 21v1c0 .55.45 1 1 1h13c.55 0 1-.45 1-1v-1zm20.9.9L2.1 2.1.69 3.5l5.7 5.71C3.28 9.87 1 12 1 15h11.17l2 2H1v2h15v-.17l4.5 4.49z"/></svg>

<svg  viewBox="0 0 24 24" fill="currentColor"><path  d="M11.35 8.5L11 5H16V1H18V5H23L21.62 18.79L11.35 8.5M1 21V22C1 22.55 1.45 23 2 23H15C15.55 23 16 22.55 16 22V21H1M21.9 21.9L2.1 2.1L.69 3.5L6.39 9.21C3.28 9.87 1 12 1 15H12.17L14.17 17H1V19H16V18.83L20.5 23.32L21.9 21.9Z"/></svg>
